X: 1055
T: Silent Night
B: christmas songs
M:3/4
L:1/8
Q: 1/4=100
K:D
V:1 
A3BA2|F6|A3BA2|F6|e4e2|c6|d4d2|A6|B4B2|d3cB2|A3BA2|F6|
B4B2|d3cB2|A3BA2|F6|e4e2|g3ec2|d6|f6|d3AF2|A3GE2|D6|D4 z2 |
W: Silent night, holy night!
W: All is calm, all is bright.
W: Round yon Virgin, Mother and Child.
W: Holy infant so tender and mild,
W: Sleep in heavenly peace,
W: Sleep in heavenly peace
W: 
W: Silent night, holy night!
W: Shepherds quake at the sight.
W: Glories stream from heaven afar
W: Heavenly hosts sing Alleluia,
W: Christ the Savior is born!
W: Christ the Savior is born
W: 
W: 
W: Silent night, holy night!
W: Son of God love's pure light.
W: Radiant beams from Thy holy face
W: With dawn of redeeming grace,
W: Jesus Lord, at Thy birth
W: Jesus Lord, at Thy birth
% abcbook-tune_id 627df8e519e83fe44988cc84


% abcbook-boost 0
% abcbook-tablature 
% abcbook-transpose 
% abcbook-lastupdated 1653910500584
% abcbook-soundfonts 
% abcbook-repeats 1
% Titles One title
% Transcriptions Only 1 transcription
% Movement Has lots of stepwise movement
% Movement Has some stepwise movement
% Mode major
% Key D
% Time_signature 3/4
% Has_accompaniment_chords No chords

